img/svgicons/viber.svg

<svg width="31" height="31" viewBox="0 0 31 31" fill="none" xmlns="http://www.w3.org/2000/svg">
<circle cx="15.5" cy="15.5" r="15.5" fill="#337D5A"/>
<g clip-path="url(#clip0_9_112)">
<path d="M12.1538 23.9996C11.9642 23.9997 11.8105 23.8454 11.8105 23.6558V23.6558C11.8105 22.7905 11.8089 21.9236 11.8121 21.0583C11.8121 20.9598 11.7787 20.9028 11.6867 20.8705C11.5105 20.8073 11.3359 20.7381 11.1565 20.6811C10.0914 20.3454 9.3581 19.6464 8.84381 18.7072C8.56286 18.1914 8.39302 17.6386 8.26286 17.072C8.05175 16.1543 7.97873 15.2243 8.00413 14.2851C8.02159 13.6785 8.07239 13.0749 8.16604 12.4759C8.23905 12.0033 8.30572 11.5275 8.41524 11.0609C8.67239 9.97082 9.28508 9.10089 10.2089 8.43727C10.7756 8.03078 11.4057 7.74594 12.0724 7.53345C12.6168 7.35947 13.1771 7.24553 13.7438 7.1593C14.5517 7.03613 15.3644 6.97916 16.1803 7.00533C16.6787 7.02227 17.1787 7.05768 17.6756 7.10541C18.3819 7.17316 19.0819 7.28402 19.7692 7.46109C20.4279 7.63046 21.0549 7.87373 21.6311 8.23095C22.6327 8.84991 23.2549 9.73217 23.5597 10.8377C23.7517 11.5336 23.8787 12.2419 23.9438 12.9594C24.0137 13.7277 24.0152 14.4961 23.9676 15.2659C23.939 15.7217 23.9025 16.1759 23.8216 16.6255C23.6644 17.5016 23.3978 18.3407 22.9375 19.1137C22.5898 19.6957 22.093 20.1376 21.493 20.4717C20.9692 20.7627 20.4041 20.949 19.8184 21.0768C19.3549 21.1784 18.8867 21.2385 18.4137 21.2754C17.3486 21.3555 16.2835 21.3878 15.2152 21.4155C15.1803 21.4171 15.1343 21.4309 15.1121 21.4556C14.4708 22.1361 13.7851 22.7751 13.1073 23.4202C12.9168 23.6019 12.7248 23.7836 12.5295 23.9622C12.5073 23.9838 12.4692 23.9976 12.4375 23.9976C12.3432 23.999 12.2489 23.9995 12.1538 23.9996ZM12.5722 22.8052C12.5702 22.8332 12.6058 22.8497 12.6248 22.829V22.829C12.8517 22.6134 13.0819 22.4025 13.3057 22.1823C13.7168 21.7789 14.1248 21.3724 14.5295 20.9613C14.7121 20.7766 14.9311 20.6826 15.1898 20.6734C15.9454 20.6441 16.701 20.621 17.4549 20.5918C18.0756 20.5671 18.6946 20.524 19.3073 20.4193C19.9041 20.3177 20.4803 20.1576 21.0184 19.882C21.6184 19.5756 22.0851 19.1383 22.3898 18.5486C22.7486 17.8542 22.9756 17.1182 23.0946 16.3499C23.1867 15.7509 23.2216 15.1473 23.2343 14.5438C23.2533 13.7154 23.2025 12.8901 23.0581 12.0725C22.9787 11.6245 22.8819 11.181 22.7359 10.7499C22.4978 10.0447 22.0835 9.45964 21.4644 9.0162C20.9692 8.66207 20.4168 8.42033 19.8311 8.24634C19.3406 8.10161 18.8391 8.00769 18.3343 7.93224C17.8121 7.85526 17.2883 7.79521 16.7629 7.76441C16.0137 7.71976 15.2644 7.72746 14.5168 7.80598C13.9343 7.86603 13.3581 7.9538 12.7914 8.09699C12.0978 8.27098 11.4406 8.52503 10.8375 8.90534C9.95651 9.46118 9.38191 10.231 9.1581 11.2288C9.05493 11.6876 8.98826 12.1557 8.91524 12.6207C8.82794 13.1888 8.78032 13.7601 8.76604 14.3328C8.74699 15.0288 8.78826 15.7217 8.90731 16.4084C8.99143 16.8903 9.10413 17.3661 9.27556 17.8265C9.47715 18.3638 9.75969 18.8534 10.1835 19.2584C10.4803 19.5417 10.8121 19.7727 11.2137 19.902C11.4533 19.979 11.6883 20.0729 11.9248 20.1637C12.0978 20.23 12.2581 20.3177 12.3787 20.4609C12.5248 20.6334 12.5724 20.8351 12.5724 21.0537C12.5724 21.6373 12.5724 22.2193 12.5724 22.8028C12.5723 22.8036 12.5723 22.8044 12.5722 22.8052Z" fill="white"/>
<path d="M18.4191 19.1946C18.2746 19.193 18.0968 19.1499 17.9254 19.0791C16.7191 18.5833 15.6 17.9459 14.5952 17.1267C13.6333 16.343 12.8302 15.4269 12.1667 14.3922C11.7794 13.7902 11.4841 13.1481 11.2286 12.486C11.1794 12.3598 11.1127 12.2381 11.0873 12.1073C10.9683 11.4914 11.2032 11.0125 11.7127 10.6491C11.9365 10.4906 12.1905 10.392 12.4619 10.3381C12.7222 10.2858 12.9429 10.3735 13.1302 10.5444C13.5 10.8801 13.8191 11.2573 14.0841 11.6761C14.2079 11.8701 14.3206 12.0718 14.427 12.2751C14.5857 12.5784 14.5302 12.8355 14.2667 13.0619C14.1667 13.1466 14.0603 13.2251 13.9587 13.3082C13.6111 13.5962 13.5318 13.8825 13.7 14.2952C13.9508 14.9142 14.3429 15.4361 14.8635 15.8688C15.2619 16.1998 15.7095 16.4508 16.1937 16.6417C16.5365 16.7772 16.8349 16.6525 17.0445 16.3615C17.1413 16.226 17.2413 16.0967 17.3825 16.0027C17.6429 15.8303 17.9206 15.8303 18.2064 15.9288C18.3984 15.995 18.5683 16.1028 18.7302 16.2198C19.1032 16.4893 19.481 16.7557 19.8492 17.0313C20.0206 17.1591 20.1492 17.3223 20.1825 17.5394C20.2048 17.6949 20.1651 17.8412 20.1032 17.9828C19.8873 18.4663 19.5254 18.8143 19.0381 19.0406C18.7889 19.1622 18.654 19.1946 18.4191 19.1946Z" fill="white"/>
<path d="M16.4635 9.58521C17.6206 9.59136 18.673 10.0286 19.5111 10.9232C20.0762 11.5283 20.4127 12.2428 20.5254 13.0526C20.5921 13.5238 20.5698 13.9934 20.4651 14.4584C20.4254 14.6355 20.3048 14.7479 20.1381 14.7617C19.9619 14.7756 19.7984 14.6863 19.7349 14.5415C19.7 14.4599 19.7048 14.3768 19.7222 14.2921C19.9238 13.3283 19.7444 12.4383 19.1413 11.6453C18.5889 10.9201 17.8397 10.4936 16.919 10.3597C16.5 10.2981 16.0857 10.3243 15.6714 10.4105C15.4683 10.4521 15.2857 10.3304 15.2413 10.1318C15.1937 9.92702 15.3016 9.7438 15.5048 9.69452C15.7905 9.6237 16.081 9.59444 16.4635 9.58521Z" fill="white"/>
<path d="M19.4 13.2035C19.4403 13.4804 19.4295 13.7632 19.3917 14.0404C19.3884 14.0647 19.3848 14.0891 19.381 14.1135C19.3492 14.3137 19.1778 14.4276 18.9587 14.403C18.7556 14.3799 18.6159 14.2228 18.6302 14.0258C18.6397 13.8903 18.6651 13.7548 18.6667 13.6177C18.6778 12.6539 18.0397 11.8086 17.0889 11.5283C16.754 11.4298 16.4111 11.4067 16.0651 11.4652C15.7095 11.5268 15.5508 11.2158 15.6206 10.9833C15.6619 10.8493 15.7587 10.7662 15.8984 10.7431C16.9381 10.5799 17.8381 10.857 18.581 11.5807C19.0413 12.0287 19.3095 12.5769 19.4 13.2035V13.2035Z" fill="white"/>
<path d="M16.4127 11.8055C17.3365 11.8178 18.1381 12.503 18.2619 13.3806C18.2778 13.4961 18.2889 13.6162 18.2746 13.7301C18.2492 13.9272 18.0794 14.0396 17.8603 14.0227C17.6683 14.0088 17.527 13.8656 17.5238 13.6747C17.5222 13.4437 17.4667 13.2282 17.3317 13.0372C17.1016 12.7124 16.781 12.5507 16.3746 12.543C16.2111 12.5399 16.0841 12.4752 16.0238 12.3244C15.9635 12.1719 15.9841 12.0287 16.1016 11.9071C16.1905 11.8193 16.3016 11.7993 16.4127 11.8055Z" fill="white"/>
</g>
<defs>
<clipPath id="clip0_9_112">
<rect width="16" height="17" fill="white" transform="translate(8 7)"/>
</clipPath>
</defs>
</svg>

<svg width="31" height="31" fill="none" xmlns="http://www.w3.org/2000/svg"><circle cx="15.5" cy="15.5" r="15.5" fill="#337D5A"/><g clip-path="url(#a)" fill="#fff"><path d="M12.154 24a.344.344 0 0 1-.344-.344c0-.865-.001-1.732.002-2.598 0-.098-.033-.155-.125-.188-.176-.063-.351-.132-.53-.189-1.066-.336-1.799-1.035-2.313-1.974-.281-.516-.451-1.068-.581-1.635a11.04 11.04 0 0 1-.259-2.787c.018-.607.068-1.21.162-1.81.073-.472.14-.947.25-1.414.256-1.09.87-1.96 1.793-2.624.567-.406 1.197-.691 1.863-.904a10.822 10.822 0 0 1 1.672-.374c.808-.123 1.62-.18 2.436-.154.499.017.999.053 1.496.1.706.068 1.406.179 2.093.356.659.17 1.286.413 1.862.77 1.002.619 1.624 1.501 1.929 2.607.192.696.319 1.404.384 2.121.07.769.071 1.537.024 2.307-.029.456-.066.91-.146 1.36-.158.876-.424 1.715-.884 2.488-.348.582-.845 1.024-1.445 1.358a6.088 6.088 0 0 1-1.675.605c-.463.101-.931.161-1.404.198-1.065.08-2.13.113-3.199.14-.035.002-.08.016-.103.04-.641.681-1.327 1.32-2.005 1.965-.19.182-.382.364-.577.542a.142.142 0 0 1-.092.036 20.55 20.55 0 0 1-.284.002Zm.418-1.195c-.002.028.034.045.053.024.227-.216.457-.427.68-.647.412-.403.82-.81 1.225-1.22a.94.94 0 0 1 .66-.289c.755-.029 1.511-.052 2.265-.081.62-.025 1.24-.068 1.852-.173.597-.101 1.173-.261 1.711-.537.6-.306 1.067-.744 1.372-1.333a7.13 7.13 0 0 0 .705-2.2c.092-.598.127-1.202.14-1.805a12.526 12.526 0 0 0-.177-2.472 9.003 9.003 0 0 0-.322-1.322 3.421 3.421 0 0 0-1.272-1.734c-.495-.354-1.047-.596-1.633-.77-.49-.144-.992-.238-1.497-.314a18.005 18.005 0 0 0-1.571-.168 13.68 13.68 0 0 0-2.246.042c-.583.06-1.159.148-1.726.291-.693.174-1.35.428-1.954.808-.88.556-1.455 1.326-1.679 2.324-.103.459-.17.927-.243 1.392-.087.568-.135 1.14-.149 1.712-.019.696.022 1.389.141 2.075.084.482.197.958.369 1.418.201.538.484 1.027.908 1.432.296.284.628.515 1.03.644.24.077.474.17.71.262.174.066.334.154.455.297.146.172.193.374.193.593V22.805Z"/><path d="M18.42 19.195a1.405 1.405 0 0 1-.495-.116c-1.206-.496-2.325-1.133-3.33-1.952a11.511 11.511 0 0 1-2.428-2.735c-.388-.602-.683-1.244-.938-1.906-.05-.126-.116-.248-.142-.379-.119-.616.116-1.095.626-1.458.224-.158.478-.257.749-.31.26-.053.48.034.668.205.37.336.69.713.954 1.132.124.194.237.396.343.6.159.302.103.56-.16.786-.1.085-.207.163-.308.246-.348.288-.427.575-.259.987.25.62.643 1.141 1.164 1.574.398.33.845.582 1.33.773.343.135.64.01.85-.28.097-.136.197-.265.338-.36.26-.172.539-.172.824-.073.192.066.362.174.524.29.373.27.751.537 1.12.812.17.128.3.291.332.508a.809.809 0 0 1-.079.444c-.216.483-.578.831-1.065 1.058-.25.121-.384.154-.619.154ZM16.463 9.585c1.158.006 2.21.444 3.048 1.338.565.605.902 1.32 1.014 2.13.067.47.045.94-.06 1.405-.04.178-.16.29-.327.304-.176.014-.34-.076-.403-.22a.407.407 0 0 1-.013-.25c.202-.964.022-1.854-.58-2.647-.553-.725-1.302-1.151-2.223-1.285a3.542 3.542 0 0 0-1.248.05.358.358 0 0 1-.43-.278.35.35 0 0 1 .264-.437c.285-.071.576-.1.958-.11Z"/><path d="M19.4 13.204a3.005 3.005 0 0 1-.019.91c-.032.2-.203.314-.422.289-.203-.023-.343-.18-.329-.377.01-.136.035-.271.037-.408.01-.964-.627-1.81-1.578-2.09a2.258 2.258 0 0 0-1.024-.063c-.356.062-.514-.25-.444-.482a.331.331 0 0 1 .277-.24c1.04-.163 1.94.114 2.683.838.46.448.729.996.819 1.623Z"/><path d="M16.413 11.806c.924.012 1.725.697 1.849 1.575.016.115.027.235.013.35-.026.196-.196.309-.415.292a.35.35 0 0 1-.336-.348 1.087 1.087 0 0 0-.192-.638c-.23-.325-.551-.486-.957-.494-.164-.003-.29-.068-.351-.219a.367.367 0 0 1 .078-.417.389.389 0 0 1 .31-.101Z"/></g><defs><clipPath id="a"><path fill="#fff" transform="translate(8 7)" d="M0 0h16v17H0z"/></clipPath></defs></svg>
